img/icons/icon-checkbox-on.svg

<svg xmlns="http://www.w3.org/2000/svg" width="27" height="23" fill="none">
  <path fill="#B5B5B5" d="M7.44741 7.48604l-2.829 2.82896 7.78299 7.783 13.932-13.93196-2.828-2.829L12.4014 12.439 7.44741 7.48604z"/>
  <path fill="#B5B5B5" d="M21.1624 20c0 .542-.458 1-1 1H3.16241c-.542 0-1-.458-1-1V3c0-.542.458-1 1-1H20.0704l1.585-1.585c-.452-.268458-.9673-.41170031-1.493-.415H3.16241C1.51241 0 .162415 1.35.162415 3v17c0 1.65 1.349995 3 2.999995 3H20.1624c1.65 0 3-1.35 3-3v-9.829l-2 2V20z"/>
</svg>

<svg width="27" height="23" viewBox="0 0 27 23" fill="none" xmlns="http://www.w3.org/2000/svg">
<path d="M7.44741 7.48604L4.61841 10.315L12.4014 18.098L26.3334 4.16604L23.5054 1.33704L12.4014 12.439L7.44741 7.48604Z" fill="#B5B5B5"/>
<path d="M21.1624 20C21.1624 20.542 20.7044 21 20.1624 21H3.16241C2.62041 21 2.16241 20.542 2.16241 20V3C2.16241 2.458 2.62041 2 3.16241 2H20.0704L21.6554 0.415C21.2034 0.146542 20.6881 0.00329969 20.1624 0H3.16241C1.51241 0 0.162415 1.35 0.162415 3V20C0.162415 21.65 1.51241 23 3.16241 23H20.1624C21.8124 23 23.1624 21.65 23.1624 20V10.171L21.1624 12.171V20Z" fill="#B5B5B5"/>
</svg>
